!!!COM: Schubert, Franz
!!!CNT: Deutscher
!!!TXO: Deutsch
!!!OTL: "Der Doppelgaenger"
!!!OPR: Schwanengesang
!!!LYR: Heine, Heinrich
!!!ONM: No. 13
!!!ODT: 1828/
!!NB: Vocal melody only encoded.
**kern	**silbe
*clefG2	*
*k[f#c#]	*
*M3/4	*
*MM[langsam]	*
=5	=5
4r	.
{4f#	{Still
8.f#	ist
16f#	die
=6	=6
2.f#}	Nacht,}
=7	=7
8.r	.
{16f#	{es
4f#	ru-
8.d	-hen
16B	die
=8	=8
4f#	Gass-
4f#}	-en}
4r	.
=9	=9
8r	.
{8f#	{in
(8.f#	die-
32g	|
32f#)	|
(8e	-sem
8d)	|
=10	=10
(8.c#	Hau-
16f#)	|
4f#}	-se}
4r	.
=11	=11
{4..f#	{wohn-
16f#	-te
(8.a	mein
16g)	|
=12	=12
2f#}	Schatz;}
4r	.
=15	=15
8.r	.
{16f#	{sie
4.f#	hat
8f#	schon
=16	=16
(4g	la2ngst
4f#)}	|}
4r	.
=17	=17
8.r	.
{16f#	{die
4f#	Stadt
8d	ver-
8B	|
=18	=18
4f#	-las-
4f#}	-sen,}
4r	.
=19	=19
8r	.
{8f#	{doch
4f#	steht
8e	noch
8d	das
=20	=20
(4c#	Haus
4f#)}	|}
4r	.
=21	=21
{8.f#	{auf
16f#	dem-
(4f#M	-sel-
8.a)	|
16g	-ben
=22	=22
2f#}	Platz.}
4r	.
=25	=25
8.r	.
{16d	{Da
4d	steht
8d	auch
8e	ein
=26	=26
2f#}	Mensch,}
4r	.
=27	=27
8r	.
{8f#	{und
8f#	starrt
8b	|
8.b	in
16b	die
=28	=28
4b	Ho2-
4a#}	-he,}
4r	.
=29	=29
8r	.
{8dd	{und
4.dd	ringt
8dd	die
=30	=30
4dd	Ha2nde
4cc#}	|}
4r	.
=31	=31
8r	.
{8ff#	{vor
[2ff#	Schmer-
=32	=32
4ff#]	|
8.f#	-zens-
16f#	-ge-
[4f#	-walt;
=33	=33
2f#]}	|}
4r	.
=34	=34
4r	.
{(4.d	{mir
8e)	|
=35	=35
4g	graut
4f#}	es,}
4r	.
=36	=36
8.r	.
{16f#	{wenn
8f#	ich
8f#	sein
8.b	Ant-
16b	-litz
=37	=37
4b	se-
4a#}	-he,}
4r	.
=38	=38
8.r	.
{16dd	{der
4.dd	Mond
8ee	zeigt
=39	=39
2cc#	mir
8cc#	mei-
8cc#	-ne
=40	=40
2ff#	eig'-
8ff#	-ne
8ff#	Ge-
=41	=41
[2.gg	-stalt.
=42	=42
4gg#]}	|}
4r	.
4r	.
=43	=43
8r	.
{8f#	{Du
4.f#	Dop-
8f#	-pel-
=44	=44
4f#	-ga2ng-
4f#}	-er,}
4r	.
=45	=45
8r	.
{8f#	{du
4f#	bleich-
8f#	-er
8f#	Ge-
=46	=46
4a	-sel-
4f#}	-le!}
8r	.
{8f#	{was
=47	=47
4.f#	a2ffst
8e#	du
8f#	nach
8g#	mein
=48	=48
8.a#	Lie-
16b	-bes-
4a#}	-leid,}
8r	.
{8c##	{das
=49	=49
8.d#	mich
16e#	ge-
8f#	-qua2lt
8e#	auf
8f#	die-
8g#	-ser
=50	=50
4b	Stel-
4a#}	-le}
4r	.
=51	=.51
4r	.
4r	.
{4b	{so
=52	=52
[2ff#	man-
8ff#]	|
8ee	-che
=53	=53
2ddn}	Nacht,}
{4ddn	{in
=54	=54
(2cc#	al-
8dd	|
8cc#	|
=55	=55
4.ee	|
8dd)	|
4cc#	-ter
=56	=56
2b}	Zeit?}
4r	.
*-	*-
